assets/svg/app/staking-logo-small.svg

<svg width="39" height="27" viewBox="0 0 39 27" fill="none" xmlns="http://www.w3.org/2000/svg">
<path d="M9.38079 6.29092C9.10933 5.98498 8.77511 5.83165 8.3774 5.83165H0.243733C0.171489 5.83165 0.11238 5.80912 0.0678657 5.76407C0.0226219 5.71974 0 5.6696 0 5.61583V0.215826C0 0.162051 0.0226219 0.112636 0.0678657 0.0675818C0.11238 0.0225273 0.171489 0 0.243733 0H8.8386C11.0074 0 12.8784 0.873476 14.451 2.61897L16.5388 5.12967L12.472 10.0166L9.38079 6.29092ZM24.4017 2.59209C25.9743 0.864029 27.8541 0 30.0412 0H38.609C38.6813 0 38.7353 0.0181671 38.7718 0.0537747C38.8075 0.090109 38.8258 0.143884 38.8258 0.215826V5.61583C38.8258 5.6696 38.8075 5.71974 38.7718 5.76407C38.7353 5.80912 38.6813 5.83165 38.609 5.83165H30.4754C30.0776 5.83165 29.7434 5.98498 29.472 6.29092L23.4801 13.4727L29.499 20.7084C29.7704 20.9969 30.0952 21.1407 30.4754 21.1407H38.609C38.6813 21.1407 38.7353 21.1633 38.7718 21.2083C38.8075 21.2534 38.8258 21.3122 38.8258 21.3834V26.7834C38.8258 26.8372 38.8075 26.8874 38.7718 26.9317C38.7353 26.9767 38.6813 26.9993 38.609 26.9993H30.0412C27.8541 26.9993 25.9831 26.1265 24.4287 24.3803L19.4402 18.3866L14.451 24.3803C12.8784 26.1265 10.9986 26.9993 8.8116 26.9993H0.243733C0.171489 26.9993 0.116758 26.9767 0.081001 26.9317C0.0445141 26.8866 0.0270003 26.8285 0.0270003 26.7558V21.3558C0.0270003 21.3021 0.0445141 21.2526 0.081001 21.2076C0.116758 21.1625 0.171489 21.14 0.243733 21.14H8.3774C8.75687 21.14 9.09109 20.9874 9.38079 20.6807L15.2639 13.6072L24.4017 2.59209Z" fill="#00D1FF"/>
</svg>

<svg width="39" height="27" fill="none" xmlns="http://www.w3.org/2000/svg">
    <path d="M9.38 6.29a1.29 1.29 0 0 0-1.003-.458H.244a.237.237 0 0 1-.176-.068A.205.205 0 0 1 0 5.616v-5.4C0 .162.023.113.068.068A.237.237 0 0 1 .244 0h8.595c2.168 0 4.04.873 5.612 2.619l2.088 2.51-4.067 4.888L9.381 6.29Zm15.022-3.698C25.974.864 27.854 0 30.042 0h8.567c.072 0 .126.018.163.054.035.036.054.09.054.162v5.4a.232.232 0 0 1-.054.148c-.037.045-.09.068-.163.068h-8.134c-.397 0-.732.153-1.003.459l-5.992 7.182 6.019 7.235c.271.289.596.433.976.433h8.134c.072 0 .126.022.163.067a.275.275 0 0 1 .054.175v5.4a.232.232 0 0 1-.054.149c-.037.045-.09.067-.163.067h-8.568c-2.187 0-4.058-.872-5.612-2.619l-4.989-5.993-4.989 5.993C12.878 26.127 10.999 27 8.811 27H.245c-.073 0-.127-.023-.163-.068a.27.27 0 0 1-.054-.176v-5.4a.23.23 0 0 1 .054-.148c.036-.045.09-.068.163-.068h8.133c.38 0 .714-.153 1.004-.46l5.883-7.073 9.138-11.015Z" fill="#00D1FF"/>
</svg>
